icons/ArrowDownNarrow_filled.svg

<svg width="24" height="24" viewBox="0 0 24 24" fill="none" xmlns="http://www.w3.org/2000/svg">
<path fill-rule="evenodd" clip-rule="evenodd" d="M12.8839,19.8839c-0.4882,0.4881 -1.2796,0.4881 -1.7678,0l-3.99998,-4c-0.48816,-0.4882 -0.48816,-1.2796 0,-1.7678c0.48815,-0.4881 1.27961,-0.4881 1.76776,0l1.86612,1.8661v-10.9822c0,-0.69036 0.5596,-1.25 1.25,-1.25c0.6904,0 1.25,0.55964 1.25,1.25v10.9822l1.8661,-1.8661c0.4882,-0.4881 1.2796,-0.4881 1.7678,0c0.4881,0.4882 0.4881,1.2796 0,1.7678z" fill="#002B51"/>
</svg>

<svg width="24" height="24" viewBox="0 0 24 24" fill="none" xmlns="http://www.w3.org/2000/svg">
<path fill-rule="evenodd" clip-rule="evenodd" d="M12.8839 19.8839C12.3957 20.372 11.6043 20.372 11.1161 19.8839L7.11612 15.8839C6.62796 15.3957 6.62796 14.6043 7.11612 14.1161C7.60427 13.628 8.39573 13.628 8.88388 14.1161L10.75 15.9822L10.75 5C10.75 4.30964 11.3096 3.75 12 3.75C12.6904 3.75 13.25 4.30964 13.25 5L13.25 15.9822L15.1161 14.1161C15.6043 13.628 16.3957 13.628 16.8839 14.1161C17.372 14.6043 17.372 15.3957 16.8839 15.8839L12.8839 19.8839Z" fill="#002B51"/>
</svg>
